X:299
T:Raheen
Z: id:dc-reel-277
M:C
L:1/8
K:G Major
B|d3e dBGA|B3G AGEG|d3e dBGA|BAGB A3c|!
Bdd2 e2dB|d3B AGEG|B3G AGEG|DGGF G3:|!
A|Bdd2 cee2|d3e dBGA|Bdd2 edd2|gedB A3c|!
BGBd e2dB|d3B AGEG|B3G AGEG|DGGF G3:|!

